picto/emergency-window-with-escape-ladder-left.svg

<svg class="color-immutable" width="24" height="24" viewBox="0 0 24 24" fill="none" xmlns="http://www.w3.org/2000/svg"><g clip-path="url(#a)"><path d="M0 22.5v-21C0 .675.675 0 1.5 0h21c.825 0 1.5.675 1.5 1.5v21c0 .825-.675 1.5-1.5 1.5h-21C.675 24 0 23.325 0 22.5Z" fill="#237F52"/><path d="M10.087 6.263a1.013 1.013 0 1 1-2.027 0 1.013 1.013 0 0 1 2.027 0ZM14.678 12l-1.137-1.137-1.956 1.955v2.857a.52.52 0 0 1-1.039 0V12.53c0-.139.054-.27.152-.369l1.556-1.556-1.708-1.709v1.454a.39.39 0 0 1-.39.39H8.312a.39.39 0 1 1 0-.779h1.48V8.142a1.3 1.3 0 0 1 1.3-1.299h1.815c.138 0 .27.055.367.153l1.532 1.532a.363.363 0 1 1-.515.514l-1.445-1.446h-1.029L16.221 12h-1.543Z" fill="#fff"/><path d="m13.125 11.586-.844-.844v-.275l.844-.844v1.963Z" fill="#fff"/><path d="M10.875 3v3.578c.071-.01.143-.015.216-.015h.627V3.844h8.438v8.438h-7.638l-.653.653v.191H21V3H10.875ZM3 3.375v17.25c0 .219.19.396.413.373a.387.387 0 0 0 .337-.391v-.92h4.5c.002 0 .003.001.003.003v.935c0 .218.189.394.411.373.196-.019.339-.197.339-.394v-9.583h-.691a.568.568 0 0 1-.059-.003v2.291c0 .002-.001.003-.003.003h-4.5v-2.625h3.983a.665.665 0 0 1-.092-.337l.002-.038H3.75V7.688h4.5c.002 0 .003.001.003.003v1.992a.568.568 0 0 1 .059-.003h.691V7.553a1.289 1.289 0 0 1-.75-.292v.049c0 .002-.001.003-.003.003h-4.5V4.688h4.5c.002 0 .003.001.003.003v.574c.206-.17.466-.276.75-.292V3.375a.376.376 0 0 0-.411-.373c-.196.018-.339.196-.339.393v.915c0 .002-.001.003-.003.003h-4.5v-.92a.387.387 0 0 0-.337-.391.375.375 0 0 0-.413.373Zm.75 13.313h4.5c.002 0 .003.001.003.003v2.619c0 .002-.001.003-.003.003h-4.5v-2.625Zm0-3h4.5c.002 0 .003.001.003.003v2.619c0 .002-.001.003-.003.003h-4.5v-2.625Z" fill="#fff"/></g><defs><clipPath id="a"><path fill="#fff" d="M0 0h24v24H0z"/></clipPath></defs></svg>

<svg class="color-immutable" width="24" height="24" viewBox="0 0 24 24" fill="none" xmlns="http://www.w3.org/2000/svg"><path d="M0 22.5V1.5C0 0.675 0.675 0 1.5 0H22.5C23.325 0 24 0.675 24 1.5V22.5C24 23.325 23.325 24 22.5 24H1.5C0.675 24 0 23.325 0 22.5Z" fill="#237F52"/><path d="M10.087 6.263C10.087 6.822 9.63301 7.276 9.07501 7.276C8.51501 7.276 8.06201 6.822 8.06201 6.263C8.06201 5.703 8.51601 5.25 9.07501 5.25C9.63401 5.25 10.087 5.703 10.087 6.263Z" fill="white"/><path d="M14.678 12L13.541 10.863L11.585 12.818V15.675C11.585 15.962 11.352 16.195 11.065 16.195C10.778 16.195 10.546 15.962 10.546 15.675V12.53C10.546 12.391 10.6 12.26 10.698 12.161L12.254 10.605L10.546 8.896V10.35C10.546 10.566 10.371 10.74 10.156 10.74H8.312C8.096 10.74 7.922 10.566 7.922 10.35C7.922 10.134 8.096 9.961 8.312 9.961H9.792V8.142C9.792 7.426 10.373 6.843 11.092 6.843H12.907C13.045 6.843 13.177 6.898 13.274 6.996L14.806 8.528C14.874 8.596 14.913 8.688 14.913 8.785C14.913 8.985 14.75 9.148 14.549 9.148C14.452 9.148 14.36 9.11 14.291 9.042L12.846 7.596H11.817L16.221 12H14.678Z" fill="white"/><path d="M13.125 11.586L12.281 10.742V10.467L13.125 9.623V11.586Z" fill="white"/><path d="M10.875 3V6.578C10.946 6.568 11.018 6.563 11.091 6.563H11.718V3.844H20.156V12.282H12.518L11.865 12.935V13.126H21V3H10.875Z" fill="white"/><path d="M3 3.375V20.625C3 20.844 3.19 21.021 3.413 20.998C3.608 20.978 3.75 20.803 3.75 20.607V19.687H8.25C8.252 19.687 8.253 19.688 8.253 19.69V20.625C8.253 20.843 8.442 21.019 8.664 20.998C8.86 20.979 9.003 20.801 9.003 20.604V11.021H8.312C8.292 11.021 8.272 11.02 8.253 11.018V13.309C8.253 13.311 8.252 13.312 8.25 13.312H3.75V10.687H7.733C7.675 10.588 7.641 10.473 7.641 10.35C7.641 10.337 7.642 10.325 7.643 10.312H3.75V7.688H8.25C8.252 7.688 8.253 7.689 8.253 7.691V9.683C8.272 9.681 8.292 9.68 8.312 9.68H9.003V7.553C8.719 7.537 8.459 7.431 8.253 7.261V7.31C8.253 7.312 8.252 7.313 8.25 7.313H3.75V4.688H8.25C8.252 4.688 8.253 4.689 8.253 4.691V5.265C8.459 5.095 8.719 4.989 9.003 4.973V3.375C9.003 3.157 8.814 2.981 8.592 3.002C8.396 3.02 8.253 3.198 8.253 3.395V4.31C8.253 4.312 8.252 4.313 8.25 4.313H3.75V3.393C3.75 3.197 3.608 3.022 3.413 3.002C3.19 2.979 3 3.156 3 3.375ZM3.75 16.688H8.25C8.252 16.688 8.253 16.689 8.253 16.691V19.31C8.253 19.312 8.252 19.313 8.25 19.313H3.75V16.688ZM3.75 13.688H8.25C8.252 13.688 8.253 13.689 8.253 13.691V16.31C8.253 16.312 8.252 16.313 8.25 16.313H3.75V13.688Z" fill="white"/></svg>
